src/assets/filled/CardPos.svg

<svg width="24" height="24" viewBox="0 0 24 24"  xmlns="http://www.w3.org/2000/svg">
<path d="M22 21.25C22 21.66 21.66 22 21.25 22H2.75C2.34 22 2 21.66 2 21.25C2 20.84 2.34 20.5 2.75 20.5H21.25C21.66 20.5 22 20.84 22 21.25Z" />
<path d="M15.3899 4.52001L4.64994 15.26C4.23994 15.67 3.57994 15.67 3.17994 15.26H3.16994C1.77994 13.86 1.77994 11.6 3.16994 10.21L10.3199 3.06001C11.7199 1.66001 13.9799 1.66001 15.3799 3.06001C15.7899 3.45001 15.7899 4.12001 15.3899 4.52001Z" />
<path d="M20.8199 8.49001L17.7699 5.44001C17.3599 5.03001 16.6999 5.03001 16.2999 5.44001L5.55994 16.18C5.14994 16.58 5.14994 17.24 5.55994 17.65L8.60994 20.71C10.0099 22.1 12.2699 22.1 13.6699 20.71L20.8099 13.56C22.2299 12.16 22.2299 9.89001 20.8199 8.49001ZM12.7599 17.52L11.5499 18.74C11.2999 18.99 10.8899 18.99 10.6299 18.74C10.3799 18.49 10.3799 18.08 10.6299 17.82L11.8499 16.6C12.0899 16.36 12.5099 16.36 12.7599 16.6C13.0099 16.85 13.0099 17.28 12.7599 17.52ZM16.7299 13.55L14.2899 16C14.0399 16.24 13.6299 16.24 13.3699 16C13.1199 15.75 13.1199 15.34 13.3699 15.08L15.8199 12.63C16.0599 12.39 16.4799 12.39 16.7299 12.63C16.9799 12.89 16.9799 13.3 16.7299 13.55Z" />
</svg>

<?xml version="1.0" encoding="UTF-8"?>
<svg width="24" height="24" viewBox="0 0 24 24" xmlns="http://www.w3.org/2000/svg">
 <path d="m22 21.25c0 0.41-0.34 0.75-0.75 0.75h-18.5c-0.41 0-0.75-0.34-0.75-0.75s0.34-0.75 0.75-0.75h18.5c0.41 0 0.75 0.34 0.75 0.75z"/>
 <path d="m15.39 4.52-10.74 10.74c-0.41 0.41-1.07 0.41-1.47 0h-0.01c-1.39-1.4-1.39-3.66 0-5.05l7.15-7.15c1.4-1.4 3.66-1.4 5.06 0 0.41 0.39 0.41 1.06 0.01 1.46z"/>
 <path d="m20.82 8.49-3.05-3.05c-0.41-0.41-1.07-0.41-1.47 0l-10.74 10.74c-0.41 0.4-0.41 1.06 0 1.47l3.05 3.06c1.4 1.39 3.66 1.39 5.06 0l7.14-7.15c1.42-1.4 1.42-3.67 0.01-5.07zm-8.06 9.03-1.21 1.22c-0.25 0.25-0.66 0.25-0.92 0-0.25-0.25-0.25-0.66 0-0.92l1.22-1.22c0.24-0.24 0.66-0.24 0.91 0 0.25 0.25 0.25 0.68 0 0.92zm3.97-3.97-2.44 2.45c-0.25 0.24-0.66 0.24-0.92 0-0.25-0.25-0.25-0.66 0-0.92l2.45-2.45c0.24-0.24 0.66-0.24 0.91 0 0.25 0.26 0.25 0.67 0 0.92z"/>
</svg>
